icons/Document/file-reduce-line.svg

<svg viewBox="0 0 24 24" xmlns="http://www.w3.org/2000/svg"><path d="M15 4H5V20H19V8H15V4ZM3 2.9918C3 2.44405 3.44749 2 3.9985 2H16L20.9997 7L21 20.9925C21 21.5489 20.5551 22 20.0066 22H3.9934C3.44476 22 3 21.5447 3 21.0082V2.9918ZM16 11V13H8V11H16Z"/></svg>

<svg xmlns="http://www.w3.org/2000/svg" viewBox="0 0 24 24">
    <g>
        <path fill="none" d="M0 0h24v24H0z"/>
        <path d="M15 4H5v16h14V8h-4V4zM3 2.992C3 2.444 3.447 2 3.999 2H16l5 5v13.993A1 1 0 0 1 20.007 22H3.993A1 1 0 0 1 3 21.008V2.992zM16 11v2H8v-2h8z"/>
    </g>
</svg>
